X:513
T:
N:
S:Efter både »Florsen» ock Laugren, som spelat valsen lika.
R:vals
O:Gotland, Burs
M:3/4
L:1/8
K:D
A2 ffff|f2 e2 f2|a4 gf|e6|(Ae) (ce) (ce)|(Ae) (ce) (ce)|b4 ag|f6|
A2 ff f2|f2 g2 a2|b6|b2 c'2 d'2|d'2 c'2 b2|a3 gfe|(dc) (df) (ec)|
d6::(gf) (e^d) e2|(gf) (e^d) e2|(fe) (dc) d2|(fe) (dc) d2|
(gf) (e^d) e2|(gf) (e^d) e2|(dc) (df) (ec)|d6:|
K:G
|:G4 B2|G4 B2|D2 G2 A2|B3 A G2|B3 A G2|c3 BAG|(FE) (DC) (B,A,)|
G,2 B3 B|B2 c2 d2|e6-|e2 f2 g2|g2 f2 e2|d3 cBA|(GF) (GB) (AF)|G6:|

